X: 11
T: Catharsis
R: reel
M: 4/4
L: 1/8
K:Gmin
DGGF DGGF|DFGA B/A/G AF|DGGF DGGF|DCB,C B,A,A,2|
DGGF DGGF|DFGA B/A/G Ac|dcBc BAGF|1 DGGF G2 G2:|2 DGGF GABc||
dGGc GGBG|GAGG GABc|dFFc FFBF|FAFF GABc|
dEEc EEBE|EAEE GABc|dcBc BAGF|1 DGGF GABc:|2 DCB,C B,A,G,F,||


